X: 2
T: First song of the feast
N: Derived from ojibwa02.krn
C: Chippewa Songs ~ 1910
O: Red Wing, Minnesota, U.S.A
N: Chippewa Music by Frances Densmore, 1910
Z: transcribed to **kern format by Paul von Hippel and Daniel T. Shanahan
L: 1/4
M: 2/2
Q: 1/4=108
K: Bb clef=bass
%%linebreak <none>
C/ C/C [I:setbarnb 1]| 
C2C2 | 
B,A,(3B, B, B, | 
[M:3/2]B,2B,2G,F, | 
[M:2/2]F,2F,2 | 
F,2B,B,3// B,// | 
B,2B,2 | 
G,G,(3B, B, B, | 
[M:3/2]B,2B,2G,F, | 
[M:2/2]F,2F,2 | 
F,2(3F, F, F, | 
F,2F,2 | 
D,D,E,/ E,/D, | 
[M:3/2]C,2C,2C,B,, | 
[M:2/2]B,,2B,,2 | 
B,,2(3C, C, C, | 
C,2C,2 | 
C,B,,(3C, C, C, | 
[M:3/2]B,,2B,,2G,,F,, | 
[M:2/2]F,,2F,,2 | 
F,,2(3C C C | 
C2C2 | 
B,A,(3B, B, B, | 
[M:3/2]B,2B,>G, (3F, F, F, | 
[M:2/2]F,2F,2 | 
F,4 |]  



